X:1
T:Title
%%score ( 1 2 ) { 3 | 4 }
L:1/8
Q:1/4=110
M:4/4
K:G
V:1 treble nm="Grand Piano, Soprano"
V:2 treble 
V:3 bass nm="Choir Pad, Albion, SM"
V:4 bass 
V:1
 [DG]4 [DB]2 [Dd]2 | [DB]2 G2 [FA]4 | [FA]4 [GB]2 [Gd]2 | cB [FA]2 [EG]4 | [DG]4 [DB]2 [DB]2 | %5
w: By~Robert~M.~Boyd,~1816 * *|||||
 [Gd]2 [Fd]2 [GB]3 [FA] | [EG]2 [GB]2 [FA]4 | [DB]4 [DG]2 D2 | D-[DA]Bc [Fd]4 | [Gd]4 [GB]2 [Dd]2 | %10
w: |||||
 cB [DA]2 [DG]4- | [DG]4 z4 |] %12
w: ||
V:2
 x8 | x8 | x8 | G2 z2 z4 | x8 | x8 | x8 | x8 | .G2 G2 z4 | x8 | E2 z2 z4 | x8 |] %12
V:3
 G,4 B,2 B,2 | D2 B,2 A,4 | D4 B,2 B,2 | E2 D2 B,4 | B,4 D2 D2 | B,2 A,2 G,3 A, | %6
 B,2[K:treble] D2 C4 | D4 B,2 D2 | C2[K:bass] B,2 A,4 | B,4 D2 B,2 | E2 D2 D4- | D4 z4 |] %12
V:4
 z4 G,2 G,2 | G,2 E,2 D,4 | D,4 G,2 G,2 | C,2 D,2 B,,4 | G,4 G,2 G,2 | D,2 D,2 z4 | z2 G,2 D,4 | %7
 G,4 z2 A,2 | G,F, E,2 D,4 | D,4 G,2 G,2 | C,2 D,2 G,,4- | G,,4 z4 |] %12

